icons-rebrand/svg/webex-teams-new-regular.svg

<svg width="32" height="32" viewBox="0 0 32 32" fill="none" xmlns="http://www.w3.org/2000/svg">
<path fill-rule="evenodd" clip-rule="evenodd" d="M16 7.75024C15.138 7.75024 14.3114 8.09265 13.7019 8.70214C13.0924 9.31164 12.75 10.1383 12.75 11.0002C12.75 11.8622 13.0924 12.6888 13.7019 13.2983C14.3114 13.9078 15.138 14.2502 16 14.2502C16.862 14.2502 17.6886 13.9078 18.2981 13.2983C18.9076 12.6888 19.25 11.8622 19.25 11.0002C19.25 10.1383 18.9076 9.31164 18.2981 8.70214C17.6886 8.09265 16.862 7.75024 16 7.75024ZM18.96 14.7152C19.7305 14.1013 20.291 13.2629 20.5639 12.3163C20.8368 11.3697 20.8086 10.3616 20.4832 9.4317C20.1578 8.5018 19.5514 7.69609 18.7478 7.12612C17.9442 6.55616 16.9833 6.25016 15.9981 6.25049C15.013 6.25082 14.0523 6.55747 13.2491 7.12798C12.4459 7.69849 11.84 8.50462 11.5152 9.43473C11.1905 10.3649 11.163 11.3729 11.4365 12.3194C11.7101 13.2658 12.2711 14.1038 13.042 14.7172C12.3954 14.9271 11.774 15.2079 11.189 15.5542C10.7629 15.1929 10.2823 14.9013 9.765 14.6902C10.1244 14.2595 10.3535 13.7351 10.4254 13.1788C10.4973 12.6224 10.4091 12.0571 10.1712 11.5491C9.93317 11.041 9.55527 10.6114 9.08176 10.3106C8.60826 10.0097 8.05879 9.85013 7.49779 9.8505C6.9368 9.85087 6.38754 10.0112 5.91443 10.3127C5.44133 10.6141 5.064 11.0443 4.82669 11.5526C4.58938 12.0609 4.50193 12.6264 4.57461 13.1827C4.64728 13.7389 4.87706 14.2629 5.237 14.6932C3.504 15.4072 2.25 16.9242 2.25 18.8002C2.25 19.4362 2.641 19.8882 3.05 20.1732C3.458 20.4582 3.986 20.6562 4.535 20.7962C5.354 21.0062 6.336 21.1122 7.317 21.1242C7.273 21.4442 7.25 21.7692 7.25 22.1002C7.25 23.0982 7.913 23.8212 8.697 24.3072C9.489 24.7972 10.548 25.1442 11.699 25.3772C14.009 25.8462 16.904 25.8992 19.341 25.5442C19.5379 25.5155 19.7153 25.4096 19.8342 25.25C19.9531 25.0905 20.0038 24.8902 19.975 24.6932C19.9462 24.4963 19.8404 24.3189 19.6808 24.2C19.5212 24.0811 19.3209 24.0305 19.124 24.0592C16.844 24.3922 14.124 24.3392 11.997 23.9072C10.929 23.6902 10.064 23.3892 9.487 23.0312C8.901 22.6692 8.75 22.3462 8.75 22.1002C8.75 18.6952 11.928 15.7502 16 15.7502C17.973 15.7502 19.758 16.4512 21.061 17.5702C21.2079 17.6991 21.3993 17.7656 21.5944 17.7555C21.7896 17.7454 21.9731 17.6595 22.1059 17.5162C22.2386 17.3728 22.3102 17.1833 22.3054 16.988C22.3006 16.7926 22.2197 16.6069 22.08 16.4702C22.723 16.0272 23.561 15.7502 24.5 15.7502C26.544 15.7502 28.034 17.0282 28.227 18.4632C28.2401 18.5609 28.2724 18.655 28.3219 18.7402C28.3714 18.8253 28.4372 18.8999 28.5155 18.9597C28.5938 19.0194 28.6831 19.0632 28.7784 19.0884C28.8736 19.1136 28.9729 19.1199 29.0705 19.1067C29.1681 19.0936 29.2622 19.0614 29.3474 19.0119C29.4326 18.9624 29.5072 18.8966 29.5669 18.8183C29.6267 18.7399 29.6704 18.6506 29.6957 18.5554C29.7209 18.4601 29.7271 18.3609 29.714 18.2632C29.491 16.6102 28.294 15.3002 26.7 14.6662C27.0795 14.2418 27.328 13.7167 27.4157 13.1542C27.5034 12.5916 27.4264 12.0157 27.194 11.496C26.9617 10.9762 26.5839 10.5348 26.1063 10.225C25.6286 9.91517 25.0716 9.75018 24.5022 9.74992C23.9329 9.74966 23.3757 9.91415 22.8978 10.2235C22.4198 10.5329 22.0417 10.974 21.8088 11.4935C21.576 12.0131 21.4985 12.5889 21.5857 13.1515C21.6728 13.7141 21.9209 14.2395 22.3 14.6642C21.759 14.8772 21.2567 15.1775 20.813 15.5532C20.2283 15.2061 19.6068 14.925 18.96 14.7152ZM7.696 19.6242C8.147 18.4102 8.921 17.3332 9.919 16.4682C9.276 16.0262 8.439 15.7502 7.5 15.7502C5.296 15.7502 3.755 17.2222 3.75 18.7922C3.76 18.8122 3.795 18.8642 3.909 18.9432C4.107 19.0812 4.439 19.2242 4.905 19.3432C5.682 19.5412 6.689 19.6382 7.695 19.6232L7.696 19.6242ZM3.747 18.7832C3.747 18.7832 3.749 18.7852 3.749 18.7912L3.747 18.7832ZM24.5 11.2502C24.1154 11.2502 23.7466 11.403 23.4747 11.6749C23.2028 11.9469 23.05 12.3157 23.05 12.7002C23.05 13.0848 23.2028 13.4536 23.4747 13.7255C23.7466 13.9975 24.1154 14.1502 24.5 14.1502C24.8846 14.1502 25.2534 13.9975 25.5253 13.7255C25.7972 13.4536 25.95 13.0848 25.95 12.7002C25.95 12.3157 25.7972 11.9469 25.5253 11.6749C25.2534 11.403 24.8846 11.2502 24.5 11.2502ZM7.5 11.3502C7.11544 11.3502 6.74662 11.503 6.4747 11.7749C6.20277 12.0469 6.05 12.4157 6.05 12.8002C6.05 13.1848 6.20277 13.5536 6.4747 13.8255C6.74662 14.0975 7.11544 14.2502 7.5 14.2502C7.88456 14.2502 8.25338 14.0975 8.5253 13.8255C8.79723 13.5536 8.95 13.1848 8.95 12.8002C8.95 12.4157 8.79723 12.0469 8.5253 11.7749C8.25338 11.503 7.88456 11.3502 7.5 11.3502Z" fill="#0F0F0F"/>
<path d="M26.75 19C26.75 18.8011 26.671 18.6103 26.5303 18.4697C26.3897 18.329 26.1989 18.25 26 18.25C25.8011 18.25 25.6103 18.329 25.4697 18.4697C25.329 18.6103 25.25 18.8011 25.25 19V22.25H22C21.8011 22.25 21.6103 22.329 21.4697 22.4697C21.329 22.6103 21.25 22.8011 21.25 23C21.25 23.1989 21.329 23.3897 21.4697 23.5303C21.6103 23.671 21.8011 23.75 22 23.75H25.25V27C25.25 27.1989 25.329 27.3897 25.4697 27.5303C25.6103 27.671 25.8011 27.75 26 27.75C26.1989 27.75 26.3897 27.671 26.5303 27.5303C26.671 27.3897 26.75 27.1989 26.75 27V23.75H30C30.1989 23.75 30.3897 23.671 30.5303 23.5303C30.671 23.3897 30.75 23.1989 30.75 23C30.75 22.8011 30.671 22.6103 30.5303 22.4697C30.3897 22.329 30.1989 22.25 30 22.25H26.75V19Z" fill="#0F0F0F"/>
</svg>

<svg id="Layer_1" data-name="Layer 1" xmlns="http://www.w3.org/2000/svg" viewBox="0 0 32 32"><defs><style>.cls-1,.cls-2{fill:#0f0f0f;}.cls-1{fill-rule:evenodd;}</style></defs><path class="cls-1" d="M26.7,14.666a2.95,2.95,0,1,0-4.4,0,5.31,5.31,0,0,0-1.487.889,9.2,9.2,0,0,0-1.853-.838,4.749,4.749,0,1,0-5.918,0,9.248,9.248,0,0,0-1.853.837,5.3,5.3,0,0,0-1.424-.864,2.95,2.95,0,1,0-4.528,0A4.514,4.514,0,0,0,2.25,18.8a1.684,1.684,0,0,0,.8,1.373,4.622,4.622,0,0,0,1.485.623,12.156,12.156,0,0,0,2.782.328,7.153,7.153,0,0,0-.067.976A2.655,2.655,0,0,0,8.7,24.307a9.372,9.372,0,0,0,3,1.07,23.715,23.715,0,0,0,7.642.167.751.751,0,0,0,.634-.851.751.751,0,0,0-.851-.634A22.193,22.193,0,0,1,12,23.907a7.934,7.934,0,0,1-2.51-.876c-.586-.362-.737-.685-.737-.931,0-3.405,3.178-6.35,7.25-6.35a7.766,7.766,0,0,1,5.061,1.82.75.75,0,0,0,1.019-1.1,4.261,4.261,0,0,1,2.42-.72,3.544,3.544,0,0,1,3.727,2.713.752.752,0,0,0,.289.5.753.753,0,0,0,.262.128.739.739,0,0,0,.292.019.754.754,0,0,0,.277-.095.752.752,0,0,0,.349-.457.756.756,0,0,0,.018-.292A4.624,4.624,0,0,0,26.7,14.666ZM6.475,11.775A1.45,1.45,0,1,1,6.05,12.8,1.449,1.449,0,0,1,6.475,11.775ZM7.7,19.624h0a11.172,11.172,0,0,1-2.79-.28,3.2,3.2,0,0,1-1-.4.476.476,0,0,1-.159-.151c0-1.57,1.546-3.042,3.75-3.042a4.265,4.265,0,0,1,2.419.718A7.785,7.785,0,0,0,7.7,19.624ZM16,14.25a3.25,3.25,0,1,1,2.3-.952A3.247,3.247,0,0,1,16,14.25Zm9.525-.524A1.45,1.45,0,1,1,25.95,12.7,1.452,1.452,0,0,1,25.525,13.726Z"/><path class="cls-2" d="M26.75,19a.75.75,0,0,0-1.5,0v3.25H22a.75.75,0,0,0,0,1.5h3.25V27a.75.75,0,0,0,1.5,0V23.75H30a.75.75,0,0,0,0-1.5H26.75Z"/></svg>
